( pcb2gcode 1.3.2 )
( Software-independent Gcode )

G94 ( Millimeters per minute feed rate. )
G21 ( Units == Millimeters. )

G90 ( Absolute coordinates. )
S4000 ( RPM spindle speed. )
F50.00000 ( Feedrate. )

F50.00000 ( Feedrate. )
M3 ( Spindle on clockwise. )
G04 P0 ( dwell for no time -- G64 should not smooth over this point )
G00 Z0.50000 ( retract )

G00 X2.04512 Y28.44528 ( rapid move to begin. )
F25.00000
G01 Z-0.10000
G04 P0 ( dwell for no time -- G64 should not smooth over this point )
F50.00000
X2.04512 Y28.44528
X2.07349 Y28.21729
X2.14865 Y28.00014
X2.24273 Y27.83720
X2.39318 Y27.66357
X2.57647 Y27.52499
X2.80413 Y27.42006
X3.04995 Y27.37114
X3.25899 Y27.37225
X3.50346 Y27.42755
X3.69401 Y27.51361
X3.89485 Y27.66357
X4.04530 Y27.83720
X4.13938 Y28.00014
X4.21454 Y28.21729
X4.24400 Y28.46621
X4.21454 Y28.71510
X4.13938 Y28.93225
X4.04530 Y29.09519
X3.89485 Y29.26882
X3.69401 Y29.41881
X3.46369 Y29.51774
X3.27964 Y29.55686
X3.04995 Y29.56123
X2.78457 Y29.50484
X2.59404 Y29.41881
X2.42424 Y29.29681
X2.26730 Y29.12900
X2.13164 Y28.89405
X2.06481 Y28.67421
X2.04512 Y28.44528
X1.84622 Y28.42435
X1.88327 Y28.15549
X1.95643 Y27.93746
X2.11866 Y27.66959
X2.30669 Y27.47378
X2.53133 Y27.32138
X2.78276 Y27.21902
X2.89018 Y27.19618
X3.39785 Y27.19618
X3.58482 Y27.24485
X3.82912 Y27.36319
X4.01390 Y27.50014
X4.16938 Y27.66959
X4.34662 Y27.97655
X4.42213 Y28.23725
X4.44400 Y28.46621
X4.40476 Y28.77690
X4.33161 Y28.99493
X4.16938 Y29.26280
X4.01388 Y29.43225
X3.82912 Y29.56920
X3.54573 Y29.70255
X3.32122 Y29.75249
X3.04995 Y29.76123
X2.70321 Y29.68754
X2.45891 Y29.56920
X2.24454 Y29.40263
X2.06953 Y29.19519
X1.95643 Y28.99496
X1.86590 Y28.69514
X1.84622 Y28.42435
G04 P0 ( dwell for no time -- G64 should not smooth over this point )
G00 Z0.50000 ( retract )

G00 X2.04512 Y25.90528 ( rapid move to begin. )
F25.00000
G01 Z-0.10000
G04 P0 ( dwell for no time -- G64 should not smooth over this point )
F50.00000
X2.04512 Y25.90528
X2.07349 Y25.67729
X2.14865 Y25.46014
X2.24273 Y25.29720
X2.39318 Y25.12357
X2.57647 Y24.98499
X2.80413 Y24.88006
X3.04995 Y24.83114
X3.25899 Y24.83225
X3.50346 Y24.88755
X3.69401 Y24.97361
X3.89485 Y25.12357
X4.04530 Y25.29720
X4.13938 Y25.46014
X4.21454 Y25.67729
X4.24400 Y25.92621
X4.21454 Y26.17510
X4.13938 Y26.39225
X4.04530 Y26.55519
X3.89485 Y26.72882
X3.69401 Y26.87881
X3.46369 Y26.97774
X3.27964 Y27.01686
X3.04995 Y27.02123
X2.78457 Y26.96484
X2.59404 Y26.87881
X2.42424 Y26.75681
X2.26730 Y26.58900
X2.13164 Y26.35405
X2.06481 Y26.13421
X2.04512 Y25.90528
X1.84622 Y25.88435
X1.88327 Y25.61549
X1.95643 Y25.39746
X2.11866 Y25.12959
X2.30669 Y24.93378
X2.53133 Y24.78138
X2.78276 Y24.67902
X2.89018 Y24.65618
X3.39785 Y24.65618
X3.58482 Y24.70485
X3.82912 Y24.82319
X4.01390 Y24.96014
X4.16938 Y25.12959
X4.34662 Y25.43655
X4.42213 Y25.69725
X4.44400 Y25.92621
X4.40476 Y26.23690
X4.33161 Y26.45493
X4.16938 Y26.72280
X4.01388 Y26.89225
X3.82912 Y27.02920
X3.54573 Y27.16255
X3.39790 Y27.19618
X2.89010 Y27.19618
X2.70321 Y27.14754
X2.45891 Y27.02920
X2.27415 Y26.89227
X2.11866 Y26.72280
X1.94141 Y26.41584
X1.86590 Y26.15514
X1.84622 Y25.88435
G04 P0 ( dwell for no time -- G64 should not smooth over this point )
G00 Z0.50000 ( retract )

G00 X6.56581 Y23.87582 ( rapid move to begin. )
F25.00000
G01 Z-0.10000
G04 P0 ( dwell for no time -- G64 should not smooth over this point )
F50.00000
X6.56581 Y23.87582
X4.12579 Y23.87582
X4.02073 Y24.04900
X3.89485 Y24.18882
X3.69401 Y24.33881
X3.48393 Y24.43233
X3.27964 Y24.47686
X3.00839 Y24.47686
X2.80413 Y24.43233
X2.59404 Y24.33881
X2.40799 Y24.20363
X2.26730 Y24.04900
X2.13915 Y23.83360
X2.07349 Y23.63510
X2.04403 Y23.38621
X2.06481 Y23.17818
X2.14865 Y22.92014
X2.26730 Y22.72339
X2.40799 Y22.56876
X2.61269 Y22.42408
X2.80413 Y22.34006
X3.00839 Y22.29553
X3.25899 Y22.29225
X3.46369 Y22.33465
X3.67535 Y22.42408
X3.75398 Y22.47582
X6.11105 Y22.47582
X6.11080 Y18.69302
X6.04453 Y18.63191
X6.01080 Y18.52079
X6.01466 Y17.58180
X6.06940 Y17.47941
X6.17178 Y17.42468
X6.55652 Y17.42081
X6.75855 Y17.37354
X6.88400 Y17.37466
X7.06513 Y17.42081
X7.44984 Y17.42468
X7.55222 Y17.47941
X7.59558 Y17.54428
X7.61080 Y17.62081
X7.61080 Y18.52079
X7.57709 Y18.63191
X7.51080 Y18.69302
X7.51080 Y21.97582
X8.30483 Y21.97968
X8.40721 Y22.03442
X8.45057 Y22.09929
X8.46579 Y22.17582
X8.46579 Y24.17582
X8.45057 Y24.25237
X8.40721 Y24.31724
X8.34234 Y24.36060
X8.26579 Y24.37582
X6.72680 Y24.37198
X6.62441 Y24.31724
X6.58105 Y24.25237
X6.56581 Y24.17582
X6.56581 Y23.87582
X6.36582 Y24.07582
X4.24123 Y24.07582
X4.16938 Y24.18280
X3.98134 Y24.37861
X3.82912 Y24.48920
X3.58482 Y24.60754
X3.39790 Y24.65618
X2.89010 Y24.65618
X2.70321 Y24.60754
X2.45891 Y24.48920
X2.27415 Y24.35227
X2.06953 Y24.11519
X1.95643 Y23.91496
X1.88327 Y23.69690
X1.84403 Y23.38621
X1.86590 Y23.15725
X1.97545 Y22.82014
X2.06953 Y22.65720
X2.24454 Y22.44976
X2.45891 Y22.28319
X2.78276 Y22.13902
X2.89018 Y22.11618
X3.39785 Y22.11618
X3.54573 Y22.14984
X3.81634 Y22.27582
X5.91080 Y22.27582
X5.91080 Y18.78274
X5.84125 Y18.67387
X5.81080 Y18.52079
X5.81080 Y17.62081
X5.84125 Y17.46775
X5.92797 Y17.33798
X6.05774 Y17.25127
X6.13277 Y17.22851
X6.52152 Y17.22081
X6.75855 Y17.17355
X6.90493 Y17.17576
X7.10010 Y17.22081
X7.48885 Y17.22851
X7.56388 Y17.25127
X7.69365 Y17.33798
X7.78037 Y17.46775
X7.81080 Y17.62081
X7.81080 Y18.52079
X7.78037 Y18.67387
X7.71080 Y18.78274
X7.71080 Y21.77582
X8.34384 Y21.78352
X8.41887 Y21.80628
X8.54864 Y21.89299
X8.63536 Y22.02276
X8.66579 Y22.17582
X8.65811 Y24.25387
X8.63536 Y24.32890
X8.54864 Y24.45867
X8.41887 Y24.54539
X8.34384 Y24.56815
X6.76581 Y24.57582
X6.61275 Y24.54539
X6.48299 Y24.45867
X6.43325 Y24.39807
X6.37351 Y24.25387
X6.36582 Y24.07582
G04 P0 ( dwell for no time -- G64 should not smooth over this point )
G00 Z0.50000 ( retract )

G00 X11.41582 Y21.46576 ( rapid move to begin. )
F25.00000
G01 Z-0.10000
G04 P0 ( dwell for no time -- G64 should not smooth over this point )
F50.00000
X11.41582 Y21.46576
X8.67087 Y18.72079
X8.37181 Y18.71695
X8.26942 Y18.66221
X8.22606 Y18.59734
X8.21082 Y18.52079
X8.21082 Y17.62081
X8.24455 Y17.50971
X8.31082 Y17.44863
X8.31082 Y14.38577
X7.85126 Y13.92618
X3.98728 Y13.92618
X3.86379 Y14.05681
X3.71157 Y14.16740
X3.48393 Y14.27233
X3.23806 Y14.32123
X3.04995 Y14.32123
X2.82434 Y14.27774
X2.59404 Y14.17881
X2.40799 Y14.04363
X2.24273 Y13.85519
X2.13164 Y13.65405
X2.06481 Y13.43421
X2.04512 Y13.20528
X2.07349 Y12.97729
X2.13164 Y12.79834
X2.24273 Y12.59720
X2.40799 Y12.40876
X2.59404 Y12.27358
X2.80413 Y12.18006
X3.04995 Y12.13114
X3.25899 Y12.13225
X3.50346 Y12.18755
X3.71157 Y12.28499
X3.88007 Y12.40878
X3.98723 Y12.52618
X7.87455 Y12.52618
X7.70473 Y12.33512
X7.60376 Y12.15806
X7.53975 Y11.96451
X7.51194 Y11.69990
X7.53975 Y11.47711
X7.60376 Y11.28359
X7.72931 Y11.07269
X7.86652 Y10.92194
X8.04834 Y10.78984
X8.27386 Y10.69301
X8.49436 Y10.65062
X8.67724 Y10.65062
X8.93754 Y10.70594
X9.12332 Y10.78986
X9.30513 Y10.92197
X9.46690 Y11.10650
X9.56787 Y11.28362
X9.63187 Y11.47711
X9.65969 Y11.74173
X9.64056 Y11.92364
X9.57536 Y12.13848
X9.44231 Y12.36893
X9.28580 Y12.53505
X9.28580 Y13.38084
X9.30073 Y13.39580
X16.04093 Y13.39580
X16.77580 Y12.66093
X16.77580 Y12.53507
X16.61931 Y12.36893
X16.49376 Y12.15806
X16.42975 Y11.96451
X16.40194 Y11.74173
X16.42107 Y11.51798
X16.48627 Y11.30315
X16.61931 Y11.07269
X16.75652 Y10.92194
X16.93834 Y10.78984
X17.14364 Y10.69845
X17.38436 Y10.65062
X17.60882 Y10.65499
X17.80801 Y10.69845
X18.01332 Y10.78986
X18.20991 Y10.93675
X18.35690 Y11.10650
X18.45787 Y11.28362
X18.53056 Y11.51798
X18.55078 Y11.72083
X18.53056 Y11.92364
X18.45787 Y12.15804
X18.33231 Y12.36893
X18.17580 Y12.53505
X18.17486 Y12.97785
X18.15761 Y13.11386
X18.11415 Y13.24389
X18.04616 Y13.36294
X17.93079 Y13.49324
X16.82581 Y14.59080
X16.73552 Y14.66616
X16.61647 Y14.73415
X16.48645 Y14.77761
X16.33082 Y14.79580
X9.71082 Y14.79580
X9.71082 Y17.44858
X9.77711 Y17.50971
X9.80698 Y17.58180
X9.81082 Y17.88086
X12.61081 Y20.68088
X12.70797 Y20.80381
X12.76916 Y20.92647
X12.80527 Y21.05870
X12.81581 Y21.17582
X12.81581 Y21.97582
X12.90484 Y21.97968
X12.97693 Y22.00955
X13.05059 Y22.09929
X13.06580 Y22.17582
X13.06580 Y24.17582
X13.05059 Y24.25237
X13.00723 Y24.31724
X12.94236 Y24.36060
X12.86580 Y24.37582
X11.36583 Y24.37582
X11.28930 Y24.36060
X11.22443 Y24.31724
X11.18107 Y24.25237
X11.16583 Y24.17582
X11.16583 Y22.17582
X11.18107 Y22.09929
X11.25473 Y22.00955
X11.32682 Y21.97968
X11.41582 Y21.97582
X11.41582 Y21.46576
X11.21582 Y21.54862
X8.58801 Y18.92079
X8.41082 Y18.92079
X8.25776 Y18.89036
X8.12799 Y18.80364
X8.04128 Y18.67387
X8.01082 Y18.52079
X8.01082 Y17.62081
X8.04128 Y17.46775
X8.11082 Y17.35891
X8.11082 Y14.46862
X7.76840 Y14.12618
X4.07631 Y14.12618
X4.01388 Y14.19225
X3.82912 Y14.32920
X3.50527 Y14.47337
X3.39790 Y14.49618
X2.89010 Y14.49618
X2.74233 Y14.46255
X2.45891 Y14.32920
X2.24454 Y14.16263
X2.06953 Y13.95519
X1.97545 Y13.79225
X1.88327 Y13.53690
X1.84403 Y13.22621
X1.88327 Y12.91549
X1.95643 Y12.69746
X2.06953 Y12.49720
X2.27415 Y12.26014
X2.45891 Y12.12319
X2.74233 Y11.98984
X2.89018 Y11.95618
X3.39783 Y11.95618
X3.54573 Y11.98984
X3.75670 Y12.08138
X3.98134 Y12.23378
X4.07626 Y12.32618
X7.46863 Y12.32618
X7.42106 Y12.23939
X7.34953 Y12.02631
X7.31085 Y11.72083
X7.34953 Y11.41531
X7.42106 Y11.20226
X7.53152 Y11.00650
X7.73269 Y10.77333
X7.98565 Y10.59764
X8.23228 Y10.49738
X8.49436 Y10.45062
X8.67724 Y10.45062
X9.01887 Y10.52324
X9.22332 Y10.61664
X9.43896 Y10.77333
X9.64010 Y11.00650
X9.75057 Y11.20226
X9.81082 Y11.38064
X9.83477 Y11.68148
X9.81084 Y12.06096
X9.75057 Y12.23939
X9.64010 Y12.43512
X9.48580 Y12.61953
X9.48580 Y13.19580
X15.95807 Y13.19580
X16.55617 Y12.59774
X16.42152 Y12.43512
X16.31106 Y12.23939
X16.23953 Y12.02631
X16.20085 Y11.72083
X16.23953 Y11.41531
X16.31106 Y11.20226
X16.42152 Y11.00650
X16.62269 Y10.77333
X16.83834 Y10.61664
X17.08185 Y10.50823
X17.30123 Y10.45936
X17.56724 Y10.45062
X17.86981 Y10.50823
X18.07598 Y10.59764
X18.35855 Y10.80292
X18.53010 Y11.00650
X18.65558 Y11.24135
X18.70661 Y11.41709
X18.72477 Y11.76014
X18.70084 Y12.06096
X18.64057 Y12.23939
X18.53010 Y12.43512
X18.37580 Y12.61953
X18.37389 Y12.99743
X18.32055 Y13.26570
X18.24433 Y13.42461
X18.11222 Y13.59466
X16.96724 Y14.73222
X16.86239 Y14.82077
X16.71075 Y14.91053
X16.54448 Y14.96900
X16.33082 Y14.99580
X9.91082 Y14.99580
X9.91082 Y17.35886
X9.98039 Y17.46775
X10.00315 Y17.54279
X10.01082 Y17.79800
X12.75224 Y20.53945
X12.88434 Y20.70953
X12.96054 Y20.86841
X13.01391 Y21.13666
X13.01581 Y21.80534
X13.08805 Y21.84326
X13.19839 Y21.95360
X13.23537 Y22.02276
X13.26580 Y22.17582
X13.26580 Y24.17582
X13.23537 Y24.32890
X13.14866 Y24.45867
X13.08805 Y24.50840
X12.94386 Y24.56815
X12.86580 Y24.57582
X11.36583 Y24.57582
X11.21277 Y24.54539
X11.08300 Y24.45867
X11.03327 Y24.39807
X10.99629 Y24.32890
X10.96583 Y24.17582
X10.96583 Y22.17582
X10.99629 Y22.02276
X11.03327 Y21.95360
X11.14361 Y21.84326
X11.21582 Y21.80536
X11.21582 Y21.54862
G04 P0 ( dwell for no time -- G64 should not smooth over this point )
G00 Z0.50000 ( retract )

G00 X2.04512 Y20.82528 ( rapid move to begin. )
F25.00000
G01 Z-0.10000
G04 P0 ( dwell for no time -- G64 should not smooth over this point )
F50.00000
X2.04512 Y20.82528
X2.07349 Y20.59729
X2.14865 Y20.38014
X2.24273 Y20.21720
X2.39318 Y20.04357
X2.57647 Y19.90499
X2.80413 Y19.80006
X3.04995 Y19.75114
X3.25899 Y19.75225
X3.50346 Y19.80755
X3.69401 Y19.89361
X3.89485 Y20.04357
X4.04530 Y20.21720
X4.13938 Y20.38014
X4.21454 Y20.59729
X4.24400 Y20.84621
X4.21454 Y21.09510
X4.13938 Y21.31225
X4.04530 Y21.47519
X3.89485 Y21.64882
X3.69401 Y21.79881
X3.46369 Y21.89774
X3.27964 Y21.93686
X3.04995 Y21.94123
X2.78457 Y21.88484
X2.59404 Y21.79881
X2.42424 Y21.67681
X2.26730 Y21.50900
X2.13164 Y21.27405
X2.06481 Y21.05421
X2.04512 Y20.82528
X1.84622 Y20.80435
X1.88327 Y20.53549
X1.95643 Y20.31746
X2.11866 Y20.04959
X2.30669 Y19.85378
X2.53133 Y19.70138
X2.78276 Y19.59902
X2.89018 Y19.57618
X3.39783 Y19.57618
X3.58482 Y19.62485
X3.82912 Y19.74319
X4.01390 Y19.88014
X4.16938 Y20.04959
X4.34662 Y20.35655
X4.42213 Y20.61725
X4.44400 Y20.84621
X4.40476 Y21.15690
X4.33161 Y21.37493
X4.16938 Y21.64280
X4.01388 Y21.81225
X3.82912 Y21.94920
X3.54573 Y22.08255
X3.39790 Y22.11618
X2.89010 Y22.11618
X2.70321 Y22.06754
X2.45891 Y21.94920
X2.27415 Y21.81227
X2.11866 Y21.64280
X1.94141 Y21.33584
X1.86590 Y21.07514
X1.84622 Y20.80435
G04 P0 ( dwell for no time -- G64 should not smooth over this point )
G00 Z0.50000 ( retract )

G00 X2.04512 Y18.28528 ( rapid move to begin. )
F25.00000
G01 Z-0.10000
G04 P0 ( dwell for no time -- G64 should not smooth over this point )
F50.00000
X2.04512 Y18.28528
X2.07349 Y18.05729
X2.14865 Y17.84014
X2.24273 Y17.67720
X2.39318 Y17.50357
X2.57647 Y17.36499
X2.80413 Y17.26006
X3.04995 Y17.21114
X3.25899 Y17.21225
X3.50346 Y17.26755
X3.69401 Y17.35361
X3.89485 Y17.50357
X4.04530 Y17.67720
X4.13938 Y17.84014
X4.21454 Y18.05729
X4.24400 Y18.30621
X4.21454 Y18.55510
X4.13938 Y18.77225
X4.04530 Y18.93519
X3.89485 Y19.10882
X3.69401 Y19.25881
X3.46369 Y19.35774
X3.27964 Y19.39686
X3.04995 Y19.40123
X2.78457 Y19.34484
X2.59404 Y19.25881
X2.42424 Y19.13681
X2.26730 Y18.96900
X2.13164 Y18.73405
X2.06481 Y18.51421
X2.04512 Y18.28528
X1.84622 Y18.26435
X1.88327 Y17.99549
X1.95643 Y17.77746
X2.11866 Y17.50959
X2.30669 Y17.31378
X2.53133 Y17.16138
X2.78276 Y17.05902
X2.89018 Y17.03618
X3.39785 Y17.03618
X3.58482 Y17.08485
X3.82912 Y17.20319
X4.01390 Y17.34014
X4.16938 Y17.50959
X4.34662 Y17.81655
X4.42213 Y18.07725
X4.44400 Y18.30621
X4.40476 Y18.61690
X4.33161 Y18.83493
X4.16938 Y19.10280
X4.01388 Y19.27225
X3.82912 Y19.40920
X3.54573 Y19.54255
X3.39795 Y19.57618
X2.89010 Y19.57618
X2.70321 Y19.52754
X2.45891 Y19.40920
X2.27415 Y19.27227
X2.11866 Y19.10280
X1.94141 Y18.79584
X1.86590 Y18.53514
X1.84622 Y18.26435
G04 P0 ( dwell for no time -- G64 should not smooth over this point )
G00 Z0.50000 ( retract )

G00 X2.04512 Y15.74528 ( rapid move to begin. )
F25.00000
G01 Z-0.10000
G04 P0 ( dwell for no time -- G64 should not smooth over this point )
F50.00000
X2.04512 Y15.74528
X2.07349 Y15.51729
X2.14865 Y15.30014
X2.24273 Y15.13720
X2.39318 Y14.96357
X2.57647 Y14.82499
X2.80413 Y14.72006
X3.04995 Y14.67114
X3.25899 Y14.67225
X3.50346 Y14.72755
X3.69401 Y14.81361
X3.89485 Y14.96357
X4.04530 Y15.13720
X4.13938 Y15.30014
X4.21454 Y15.51729
X4.24400 Y15.76621
X4.21454 Y16.01510
X4.13938 Y16.23225
X4.04530 Y16.39519
X3.89485 Y16.56882
X3.69401 Y16.71881
X3.46369 Y16.81774
X3.27964 Y16.85686
X3.04995 Y16.86123
X2.78457 Y16.80484
X2.59404 Y16.71881
X2.42424 Y16.59681
X2.26730 Y16.42900
X2.13164 Y16.19405
X2.06481 Y15.97421
X2.04512 Y15.74528
X1.84622 Y15.72435
X1.88327 Y15.45549
X1.95643 Y15.23746
X2.11866 Y14.96959
X2.30669 Y14.77378
X2.53133 Y14.62138
X2.78276 Y14.51902
X2.89018 Y14.49618
X3.39785 Y14.49618
X3.58482 Y14.54485
X3.82912 Y14.66319
X4.01390 Y14.80014
X4.16938 Y14.96959
X4.34662 Y15.27655
X4.42213 Y15.53725
X4.44400 Y15.76621
X4.40476 Y16.07690
X4.33161 Y16.29493
X4.16938 Y16.56280
X4.01388 Y16.73225
X3.82912 Y16.86920
X3.54573 Y17.00255
X3.39790 Y17.03618
X2.89010 Y17.03618
X2.70321 Y16.98754
X2.45891 Y16.86920
X2.27415 Y16.73227
X2.11866 Y16.56280
X1.94141 Y16.25584
X1.86590 Y15.99514
X1.84622 Y15.72435
G04 P0 ( dwell for no time -- G64 should not smooth over this point )
G00 Z0.50000 ( retract )

G00 X2.04512 Y10.66528 ( rapid move to begin. )
F25.00000
G01 Z-0.10000
G04 P0 ( dwell for no time -- G64 should not smooth over this point )
F50.00000
X2.04512 Y10.66528
X2.07349 Y10.43729
X2.14865 Y10.22014
X2.24273 Y10.05720
X2.39318 Y9.88357
X2.57647 Y9.74499
X2.80413 Y9.64006
X3.04995 Y9.59114
X3.25899 Y9.59225
X3.50346 Y9.64755
X3.69401 Y9.73361
X3.89485 Y9.88357
X4.04530 Y10.05720
X4.13938 Y10.22014
X4.21454 Y10.43729
X4.24400 Y10.68621
X4.21454 Y10.93510
X4.13938 Y11.15225
X4.04530 Y11.31519
X3.89485 Y11.48882
X3.69401 Y11.63881
X3.46369 Y11.73774
X3.27964 Y11.77686
X3.04995 Y11.78123
X2.78457 Y11.72484
X2.59404 Y11.63881
X2.42424 Y11.51681
X2.26730 Y11.34900
X2.13164 Y11.11405
X2.06481 Y10.89421
X2.04512 Y10.66528
X1.84622 Y10.64435
X1.88327 Y10.37549
X1.95643 Y10.15746
X2.11866 Y9.88959
X2.27415 Y9.72014
X2.45891 Y9.58319
X2.74233 Y9.44984
X2.96681 Y9.39990
X3.23806 Y9.39114
X3.54573 Y9.44984
X3.75670 Y9.54138
X4.04349 Y9.74976
X4.21850 Y9.95720
X4.33161 Y10.15746
X4.40476 Y10.37549
X4.44400 Y10.68621
X4.40476 Y10.99690
X4.33161 Y11.21493
X4.16938 Y11.48280
X4.01388 Y11.65225
X3.82912 Y11.78920
X3.54573 Y11.92255
X3.39795 Y11.95618
X2.89010 Y11.95618
X2.70321 Y11.90754
X2.45891 Y11.78920
X2.27415 Y11.65227
X2.11866 Y11.48280
X1.94141 Y11.17584
X1.86590 Y10.91514
X1.84622 Y10.64435
G04 P0 ( dwell for no time -- G64 should not smooth over this point )
G00 Z0.50000 ( retract )

G00 X19.05085 Y9.88080 ( rapid move to begin. )
F25.00000
G01 Z-0.10000
G04 P0 ( dwell for no time -- G64 should not smooth over this point )
F50.00000
X19.05085 Y9.88080
X12.01079 Y9.88080
X11.78579 Y10.10579
X11.78579 Y10.64582
X11.96077 Y10.64582
X12.03733 Y10.66106
X12.12707 Y10.73472
X12.16077 Y10.84582
X12.16077 Y12.59578
X12.12707 Y12.70690
X12.07190 Y12.76207
X11.99981 Y12.79194
X10.21082 Y12.79578
X10.13429 Y12.78056
X10.06941 Y12.73721
X10.02606 Y12.67234
X10.01082 Y12.59578
X10.01082 Y10.84582
X10.04455 Y10.73472
X10.13429 Y10.66106
X10.21082 Y10.64582
X10.38580 Y10.64582
X10.39641 Y9.69863
X10.43248 Y9.56642
X10.51549 Y9.41115
X11.24038 Y8.67267
X11.43520 Y8.54250
X11.60363 Y8.49142
X11.72080 Y8.48080
X19.34080 Y8.48080
X19.45802 Y8.49142
X19.62644 Y8.54250
X19.82126 Y8.67267
X20.47079 Y9.32086
X20.54618 Y9.41120
X20.61415 Y9.53023
X20.65758 Y9.66023
X20.67485 Y9.79622
X20.67579 Y10.64582
X20.85077 Y10.64582
X20.92733 Y10.66106
X20.99220 Y10.70442
X21.04694 Y10.80681
X21.04694 Y12.63482
X20.99220 Y12.73721
X20.92733 Y12.78056
X20.85077 Y12.79578
X20.67579 Y12.79578
X20.66525 Y13.71297
X20.62916 Y13.84523
X20.54615 Y14.00050
X20.47079 Y14.09080
X18.77079 Y15.79079
X18.77079 Y25.88582
X18.94577 Y25.88582
X19.02233 Y25.90106
X19.11207 Y25.97472
X19.14577 Y26.08582
X19.14194 Y27.87482
X19.11207 Y27.94690
X19.05690 Y28.00207
X18.94577 Y28.03578
X17.19582 Y28.03578
X17.11929 Y28.02056
X17.05441 Y27.97721
X17.01106 Y27.91234
X16.99582 Y27.83578
X16.99582 Y26.08582
X17.02955 Y25.97472
X17.11929 Y25.90106
X17.19582 Y25.88582
X17.37080 Y25.88582
X17.37080 Y15.50080
X17.38141 Y15.38363
X17.43249 Y15.21521
X17.50049 Y15.09616
X17.57585 Y15.00586
X19.27580 Y13.30591
X19.27580 Y12.79578
X19.10082 Y12.79578
X19.02429 Y12.78056
X18.93455 Y12.70690
X18.90082 Y12.59578
X18.90468 Y10.80681
X18.95941 Y10.70442
X19.02429 Y10.66106
X19.10082 Y10.64582
X19.27580 Y10.64582
X19.27580 Y10.10574
X19.05085 Y9.88080
X18.96800 Y10.08080
X12.09364 Y10.08080
X11.98579 Y10.18865
X11.98579 Y10.44829
X12.11386 Y10.47628
X12.24363 Y10.56299
X12.33034 Y10.69276
X12.35310 Y10.76779
X12.36077 Y12.59578
X12.33034 Y12.74887
X12.24363 Y12.87863
X12.11386 Y12.96535
X11.96077 Y12.99578
X10.21082 Y12.99578
X10.05776 Y12.96535
X9.92799 Y12.87863
X9.84127 Y12.74887
X9.81082 Y12.59578
X9.81082 Y12.06108
X9.83477 Y11.76014
X9.81082 Y11.38057
X9.81851 Y10.76779
X9.84127 Y10.69276
X9.92799 Y10.56299
X10.05776 Y10.47628
X10.18580 Y10.44831
X10.19738 Y9.67900
X10.24109 Y9.50838
X10.36088 Y9.28428
X10.44942 Y9.17943
X11.08442 Y8.54443
X11.18928 Y8.45588
X11.41338 Y8.33610
X11.58399 Y8.29238
X11.72080 Y8.28080
X19.34080 Y8.28080
X19.47765 Y8.29238
X19.72073 Y8.36612
X19.94813 Y8.51806
X20.61222 Y9.17943
X20.70081 Y9.28436
X20.79053 Y9.43594
X20.84897 Y9.60216
X20.87389 Y9.77663
X20.87579 Y10.44829
X21.00386 Y10.47628
X21.13363 Y10.56299
X21.22034 Y10.69276
X21.24310 Y10.76779
X21.24310 Y12.67383
X21.22034 Y12.74887
X21.13363 Y12.87863
X21.00386 Y12.96535
X20.87579 Y12.99331
X20.86429 Y13.73256
X20.82055 Y13.90327
X20.70076 Y14.12737
X20.61222 Y14.23223
X18.97079 Y15.87365
X18.97079 Y25.68829
X19.09886 Y25.71628
X19.22863 Y25.80299
X19.31534 Y25.93276
X19.33810 Y26.00779
X19.34577 Y26.62082
X19.32185 Y26.92148
X19.34577 Y27.30078
X19.33810 Y27.91383
X19.31534 Y27.98887
X19.22863 Y28.11863
X19.09886 Y28.20535
X19.02383 Y28.22811
X17.11779 Y28.22811
X17.04276 Y28.20535
X16.91299 Y28.11863
X16.82627 Y27.98887
X16.80351 Y27.91383
X16.79582 Y26.08582
X16.82627 Y25.93276
X16.91299 Y25.80299
X17.04276 Y25.71628
X17.17080 Y25.68831
X17.17080 Y15.50080
X17.18238 Y15.36400
X17.25612 Y15.12092
X17.40806 Y14.89351
X19.07580 Y13.22306
X19.07580 Y12.99334
X18.94776 Y12.96535
X18.81799 Y12.87863
X18.73127 Y12.74887
X18.70082 Y12.59578
X18.70082 Y12.06108
X18.72477 Y11.76014
X18.70082 Y11.38057
X18.70851 Y10.76779
X18.73127 Y10.69276
X18.81799 Y10.56299
X18.94776 Y10.47628
X19.07580 Y10.44831
X19.07580 Y10.18860
X18.96800 Y10.08080
G04 P0 ( dwell for no time -- G64 should not smooth over this point )
G00 Z0.50000 ( retract )

G00 X24.90512 Y10.66528 ( rapid move to begin. )
F25.00000
G01 Z-0.10000
G04 P0 ( dwell for no time -- G64 should not smooth over this point )
F50.00000
X24.90512 Y10.66528
X24.93349 Y10.43729
X25.00865 Y10.22014
X25.10273 Y10.05720
X25.25318 Y9.88357
X25.43647 Y9.74499
X25.66413 Y9.64006
X25.90995 Y9.59114
X26.11899 Y9.59225
X26.36346 Y9.64755
X26.55401 Y9.73361
X26.75485 Y9.88357
X26.90530 Y10.05720
X26.99938 Y10.22014
X27.07454 Y10.43729
X27.10400 Y10.68621
X27.07454 Y10.93510
X26.99938 Y11.15225
X26.90530 Y11.31519
X26.75485 Y11.48882
X26.55401 Y11.63881
X26.32369 Y11.73774
X26.13964 Y11.77686
X25.90995 Y11.78123
X25.64457 Y11.72484
X25.45404 Y11.63881
X25.28424 Y11.51681
X25.12730 Y11.34900
X24.99164 Y11.11405
X24.92481 Y10.89421
X24.90512 Y10.66528
X24.70622 Y10.64435
X24.74327 Y10.37549
X24.81643 Y10.15746
X24.97866 Y9.88959
X25.13415 Y9.72014
X25.31891 Y9.58319
X25.60233 Y9.44984
X25.82681 Y9.39990
X26.09806 Y9.39114
X26.40573 Y9.44984
X26.61670 Y9.54138
X26.90349 Y9.74976
X27.07850 Y9.95720
X27.19161 Y10.15746
X27.26476 Y10.37549
X27.30400 Y10.68621
X27.26476 Y10.99690
X27.19161 Y11.21493
X27.02938 Y11.48280
X26.87388 Y11.65225
X26.68912 Y11.78920
X26.40573 Y11.92255
X26.25795 Y11.95618
X25.75010 Y11.95618
X25.56321 Y11.90754
X25.31891 Y11.78920
X25.13415 Y11.65227
X24.97866 Y11.48280
X24.80141 Y11.17584
X24.72590 Y10.91514
X24.70622 Y10.64435
G04 P0 ( dwell for no time -- G64 should not smooth over this point )
G00 Z0.50000 ( retract )

G00 X24.90512 Y13.20528 ( rapid move to begin. )
F25.00000
G01 Z-0.10000
G04 P0 ( dwell for no time -- G64 should not smooth over this point )
F50.00000
X24.90512 Y13.20528
X24.93349 Y12.97729
X25.00865 Y12.76014
X25.10273 Y12.59720
X25.25318 Y12.42357
X25.43647 Y12.28499
X25.66413 Y12.18006
X25.90995 Y12.13114
X26.11899 Y12.13225
X26.36346 Y12.18755
X26.55401 Y12.27361
X26.75485 Y12.42357
X26.90530 Y12.59720
X26.99938 Y12.76014
X27.07454 Y12.97729
X27.10400 Y13.22621
X27.07454 Y13.47510
X26.99938 Y13.69225
X26.90530 Y13.85519
X26.75485 Y14.02882
X26.55401 Y14.17881
X26.32369 Y14.27774
X26.13964 Y14.31686
X25.90995 Y14.32123
X25.64457 Y14.26484
X25.45404 Y14.17881
X25.28424 Y14.05681
X25.12730 Y13.88900
X24.99164 Y13.65405
X24.92481 Y13.43421
X24.90512 Y13.20528
X24.70622 Y13.18435
X24.74327 Y12.91549
X24.81643 Y12.69746
X24.97866 Y12.42959
X25.16669 Y12.23378
X25.39133 Y12.08138
X25.64276 Y11.97902
X25.75018 Y11.95618
X26.25783 Y11.95618
X26.44482 Y12.00485
X26.68912 Y12.12319
X26.87390 Y12.26014
X27.02938 Y12.42959
X27.20662 Y12.73655
X27.28213 Y12.99725
X27.30400 Y13.22621
X27.26476 Y13.53690
X27.19161 Y13.75493
X27.02938 Y14.02280
X26.87388 Y14.19225
X26.68912 Y14.32920
X26.40573 Y14.46255
X26.25790 Y14.49618
X25.75010 Y14.49618
X25.56321 Y14.44754
X25.31891 Y14.32920
X25.13415 Y14.19227
X24.97866 Y14.02280
X24.80141 Y13.71584
X24.72590 Y13.45514
X24.70622 Y13.18435
G04 P0 ( dwell for no time -- G64 should not smooth over this point )
G00 Z0.50000 ( retract )

G00 X24.90512 Y15.74528 ( rapid move to begin. )
F25.00000
G01 Z-0.10000
G04 P0 ( dwell for no time -- G64 should not smooth over this point )
F50.00000
X24.90512 Y15.74528
X24.93349 Y15.51729
X25.00865 Y15.30014
X25.10273 Y15.13720
X25.25318 Y14.96357
X25.43647 Y14.82499
X25.66413 Y14.72006
X25.90995 Y14.67114
X26.11899 Y14.67225
X26.36346 Y14.72755
X26.55401 Y14.81361
X26.75485 Y14.96357
X26.90530 Y15.13720
X26.99938 Y15.30014
X27.07454 Y15.51729
X27.10400 Y15.76621
X27.07454 Y16.01510
X26.99938 Y16.23225
X26.90530 Y16.39519
X26.75485 Y16.56882
X26.55401 Y16.71881
X26.32369 Y16.81774
X26.13964 Y16.85686
X25.90995 Y16.86123
X25.64457 Y16.80484
X25.45404 Y16.71881
X25.28424 Y16.59681
X25.12730 Y16.42900
X24.99164 Y16.19405
X24.92481 Y15.97421
X24.90512 Y15.74528
X24.70622 Y15.72435
X24.74327 Y15.45549
X24.81643 Y15.23746
X24.97866 Y14.96959
X25.16669 Y14.77378
X25.39133 Y14.62138
X25.64276 Y14.51902
X25.75018 Y14.49618
X26.25785 Y14.49618
X26.44482 Y14.54485
X26.68912 Y14.66319
X26.87390 Y14.80014
X27.02938 Y14.96959
X27.20662 Y15.27655
X27.28213 Y15.53725
X27.30400 Y15.76621
X27.26476 Y16.07690
X27.19161 Y16.29493
X27.02938 Y16.56280
X26.87388 Y16.73225
X26.68912 Y16.86920
X26.40573 Y17.00255
X26.25790 Y17.03618
X25.75010 Y17.03618
X25.56321 Y16.98754
X25.31891 Y16.86920
X25.13415 Y16.73227
X24.97866 Y16.56280
X24.80141 Y16.25584
X24.72590 Y15.99514
X24.70622 Y15.72435
G04 P0 ( dwell for no time -- G64 should not smooth over this point )
G00 Z0.50000 ( retract )

G00 X24.90512 Y18.28528 ( rapid move to begin. )
F25.00000
G01 Z-0.10000
G04 P0 ( dwell for no time -- G64 should not smooth over this point )
F50.00000
X24.90512 Y18.28528
X24.93349 Y18.05729
X25.00865 Y17.84014
X25.10273 Y17.67720
X25.25318 Y17.50357
X25.43647 Y17.36499
X25.66413 Y17.26006
X25.90995 Y17.21114
X26.11899 Y17.21225
X26.36346 Y17.26755
X26.55401 Y17.35361
X26.75485 Y17.50357
X26.90530 Y17.67720
X26.99938 Y17.84014
X27.07454 Y18.05729
X27.10400 Y18.30621
X27.07454 Y18.55510
X26.99938 Y18.77225
X26.90530 Y18.93519
X26.75485 Y19.10882
X26.55401 Y19.25881
X26.32369 Y19.35774
X26.13964 Y19.39686
X25.90995 Y19.40123
X25.64457 Y19.34484
X25.45404 Y19.25881
X25.28424 Y19.13681
X25.12730 Y18.96900
X24.99164 Y18.73405
X24.92481 Y18.51421
X24.90512 Y18.28528
X24.70622 Y18.26435
X24.74327 Y17.99549
X24.81643 Y17.77746
X24.97866 Y17.50959
X25.16669 Y17.31378
X25.39133 Y17.16138
X25.64276 Y17.05902
X25.75018 Y17.03618
X26.25785 Y17.03618
X26.44482 Y17.08485
X26.68912 Y17.20319
X26.87390 Y17.34014
X27.02938 Y17.50959
X27.20662 Y17.81655
X27.28213 Y18.07725
X27.30400 Y18.30621
X27.26476 Y18.61690
X27.19161 Y18.83493
X27.02938 Y19.10280
X26.87388 Y19.27225
X26.68912 Y19.40920
X26.40573 Y19.54255
X26.25795 Y19.57618
X25.75010 Y19.57618
X25.56321 Y19.52754
X25.31891 Y19.40920
X25.13415 Y19.27227
X24.97866 Y19.10280
X24.80141 Y18.79584
X24.72590 Y18.53514
X24.70622 Y18.26435
G04 P0 ( dwell for no time -- G64 should not smooth over this point )
G00 Z0.50000 ( retract )

G00 X24.90512 Y20.82528 ( rapid move to begin. )
F25.00000
G01 Z-0.10000
G04 P0 ( dwell for no time -- G64 should not smooth over this point )
F50.00000
X24.90512 Y20.82528
X24.93349 Y20.59729
X25.00865 Y20.38014
X25.10273 Y20.21720
X25.25318 Y20.04357
X25.43647 Y19.90499
X25.66413 Y19.80006
X25.90995 Y19.75114
X26.11899 Y19.75225
X26.36346 Y19.80755
X26.55401 Y19.89361
X26.75485 Y20.04357
X26.90530 Y20.21720
X26.99938 Y20.38014
X27.07454 Y20.59729
X27.10400 Y20.84621
X27.07454 Y21.09510
X26.99938 Y21.31225
X26.90530 Y21.47519
X26.75485 Y21.64882
X26.55401 Y21.79881
X26.32369 Y21.89774
X26.13964 Y21.93686
X25.90995 Y21.94123
X25.64457 Y21.88484
X25.45404 Y21.79881
X25.28424 Y21.67681
X25.12730 Y21.50900
X24.99164 Y21.27405
X24.92481 Y21.05421
X24.90512 Y20.82528
X24.70622 Y20.80435
X24.74327 Y20.53549
X24.81643 Y20.31746
X24.97866 Y20.04959
X25.16669 Y19.85378
X25.39133 Y19.70138
X25.64276 Y19.59902
X25.75018 Y19.57618
X26.25783 Y19.57618
X26.44482 Y19.62485
X26.68912 Y19.74319
X26.87390 Y19.88014
X27.02938 Y20.04959
X27.20662 Y20.35655
X27.28213 Y20.61725
X27.30400 Y20.84621
X27.26476 Y21.15690
X27.19161 Y21.37493
X27.02938 Y21.64280
X26.87388 Y21.81225
X26.68912 Y21.94920
X26.40573 Y22.08255
X26.25790 Y22.11618
X25.75010 Y22.11618
X25.56321 Y22.06754
X25.31891 Y21.94920
X25.13415 Y21.81227
X24.97866 Y21.64280
X24.80141 Y21.33584
X24.72590 Y21.07514
X24.70622 Y20.80435
G04 P0 ( dwell for no time -- G64 should not smooth over this point )
G00 Z0.50000 ( retract )

G00 X24.90512 Y23.36528 ( rapid move to begin. )
F25.00000
G01 Z-0.10000
G04 P0 ( dwell for no time -- G64 should not smooth over this point )
F50.00000
X24.90512 Y23.36528
X24.93349 Y23.13729
X25.00865 Y22.92014
X25.10273 Y22.75720
X25.25318 Y22.58357
X25.43647 Y22.44499
X25.66413 Y22.34006
X25.90995 Y22.29114
X26.11899 Y22.29225
X26.36346 Y22.34755
X26.55401 Y22.43361
X26.75485 Y22.58357
X26.90530 Y22.75720
X26.99938 Y22.92014
X27.07454 Y23.13729
X27.10400 Y23.38621
X27.07454 Y23.63510
X26.99938 Y23.85225
X26.90530 Y24.01519
X26.75485 Y24.18882
X26.55401 Y24.33881
X26.32369 Y24.43774
X26.13964 Y24.47686
X25.90995 Y24.48123
X25.64457 Y24.42484
X25.45404 Y24.33881
X25.28424 Y24.21681
X25.12730 Y24.04900
X24.99164 Y23.81405
X24.92481 Y23.59421
X24.90512 Y23.36528
X24.70622 Y23.34435
X24.74327 Y23.07549
X24.81643 Y22.85746
X24.97866 Y22.58959
X25.16669 Y22.39378
X25.39133 Y22.24138
X25.64276 Y22.13902
X25.75018 Y22.11618
X26.25785 Y22.11618
X26.44482 Y22.16485
X26.68912 Y22.28319
X26.87390 Y22.42014
X27.02938 Y22.58959
X27.20662 Y22.89655
X27.28213 Y23.15725
X27.30400 Y23.38621
X27.26476 Y23.69690
X27.19161 Y23.91493
X27.02938 Y24.18280
X26.87388 Y24.35225
X26.68912 Y24.48920
X26.40573 Y24.62255
X26.25790 Y24.65618
X25.75010 Y24.65618
X25.56321 Y24.60754
X25.31891 Y24.48920
X25.13415 Y24.35227
X24.97866 Y24.18280
X24.80141 Y23.87584
X24.72590 Y23.61514
X24.70622 Y23.34435
G04 P0 ( dwell for no time -- G64 should not smooth over this point )
G00 Z0.50000 ( retract )

G00 X24.90512 Y25.90528 ( rapid move to begin. )
F25.00000
G01 Z-0.10000
G04 P0 ( dwell for no time -- G64 should not smooth over this point )
F50.00000
X24.90512 Y25.90528
X24.93349 Y25.67729
X25.00865 Y25.46014
X25.10273 Y25.29720
X25.25318 Y25.12357
X25.43647 Y24.98499
X25.66413 Y24.88006
X25.90995 Y24.83114
X26.11899 Y24.83225
X26.36346 Y24.88755
X26.55401 Y24.97361
X26.75485 Y25.12357
X26.90530 Y25.29720
X26.99938 Y25.46014
X27.07454 Y25.67729
X27.10400 Y25.92621
X27.07454 Y26.17510
X26.99938 Y26.39225
X26.90530 Y26.55519
X26.75485 Y26.72882
X26.55401 Y26.87881
X26.32369 Y26.97774
X26.13964 Y27.01686
X25.90995 Y27.02123
X25.64457 Y26.96484
X25.45404 Y26.87881
X25.28424 Y26.75681
X25.12730 Y26.58900
X24.99164 Y26.35405
X24.92481 Y26.13421
X24.90512 Y25.90528
X24.70622 Y25.88435
X24.74327 Y25.61549
X24.81643 Y25.39746
X24.97866 Y25.12959
X25.16669 Y24.93378
X25.39133 Y24.78138
X25.64276 Y24.67902
X25.75018 Y24.65618
X26.25785 Y24.65618
X26.44482 Y24.70485
X26.68912 Y24.82319
X26.87390 Y24.96014
X27.02938 Y25.12959
X27.20662 Y25.43655
X27.28213 Y25.69725
X27.30400 Y25.92621
X27.26476 Y26.23690
X27.19161 Y26.45493
X27.02938 Y26.72280
X26.87388 Y26.89225
X26.68912 Y27.02920
X26.40573 Y27.16255
X26.25790 Y27.19618
X25.75010 Y27.19618
X25.56321 Y27.14754
X25.31891 Y27.02920
X25.13415 Y26.89227
X24.97866 Y26.72280
X24.80141 Y26.41584
X24.72590 Y26.15514
X24.70622 Y25.88435
G04 P0 ( dwell for no time -- G64 should not smooth over this point )
G00 Z0.50000 ( retract )

G00 X24.90512 Y28.44528 ( rapid move to begin. )
F25.00000
G01 Z-0.10000
G04 P0 ( dwell for no time -- G64 should not smooth over this point )
F50.00000
X24.90512 Y28.44528
X24.93349 Y28.21729
X25.00865 Y28.00014
X25.10273 Y27.83720
X25.25318 Y27.66357
X25.43647 Y27.52499
X25.66413 Y27.42006
X25.90995 Y27.37114
X26.11899 Y27.37225
X26.36346 Y27.42755
X26.55401 Y27.51361
X26.75485 Y27.66357
X26.90530 Y27.83720
X26.99938 Y28.00014
X27.07454 Y28.21729
X27.10400 Y28.46621
X27.07454 Y28.71510
X26.99938 Y28.93225
X26.90530 Y29.09519
X26.75485 Y29.26882
X26.55401 Y29.41881
X26.32369 Y29.51774
X26.13964 Y29.55686
X25.90995 Y29.56123
X25.64457 Y29.50484
X25.45404 Y29.41881
X25.28424 Y29.29681
X25.12730 Y29.12900
X24.99164 Y28.89405
X24.92481 Y28.67421
X24.90512 Y28.44528
X24.70622 Y28.42435
X24.74327 Y28.15549
X24.81643 Y27.93746
X24.97866 Y27.66959
X25.16669 Y27.47378
X25.39133 Y27.32138
X25.64276 Y27.21902
X25.75018 Y27.19618
X26.25785 Y27.19618
X26.44482 Y27.24485
X26.68912 Y27.36319
X26.87390 Y27.50014
X27.02938 Y27.66959
X27.20662 Y27.97655
X27.28213 Y28.23725
X27.30400 Y28.46621
X27.26476 Y28.77690
X27.19161 Y28.99493
X27.02938 Y29.26280
X26.87388 Y29.43225
X26.68912 Y29.56920
X26.40573 Y29.70255
X26.18122 Y29.75249
X25.90995 Y29.76123
X25.56321 Y29.68754
X25.31891 Y29.56920
X25.10454 Y29.40263
X24.92953 Y29.19519
X24.81643 Y28.99496
X24.72590 Y28.69514
X24.70622 Y28.42435
G04 P0 ( dwell for no time -- G64 should not smooth over this point )
G00 Z0.50000 ( retract )

G00 X23.98780 Y31.20387 ( rapid move to begin. )
F25.00000
G01 Z-0.10000
G04 P0 ( dwell for no time -- G64 should not smooth over this point )
F50.00000
X23.98780 Y31.20387
X26.83395 Y31.20583
X26.99356 Y31.24921
X27.05795 Y31.29485
X27.11579 Y31.36798
X27.14733 Y31.44525
X27.16080 Y31.53280
X27.16080 Y35.72380
X27.14733 Y35.81138
X27.11579 Y35.88867
X27.05795 Y35.96180
X26.99356 Y36.00744
X26.83380 Y36.05080
X2.32280 Y36.05080
X2.23524 Y36.03734
X2.15797 Y36.00579
X2.08485 Y35.94796
X2.03920 Y35.88357
X1.99580 Y35.72380
X1.99580 Y31.53280
X2.02384 Y31.40275
X2.07146 Y31.32432
X2.14162 Y31.26112
X2.22676 Y31.22028
X2.32267 Y31.20583
X5.16879 Y31.20392
X5.17082 Y25.18277
X5.19218 Y25.06685
X5.23158 Y24.99316
X5.30813 Y24.91661
X5.38182 Y24.87721
X5.49780 Y24.85583
X6.28339 Y24.85969
X6.36726 Y24.87980
X6.45118 Y24.92893
X6.79779 Y24.99789
X8.23383 Y24.99789
X8.57790 Y24.92949
X8.72309 Y24.86223
X9.11580 Y24.85674
X9.11580 Y24.37582
X9.02680 Y24.37198
X8.95471 Y24.34211
X8.88105 Y24.25237
X8.86581 Y24.17582
X8.86581 Y22.17582
X8.88105 Y22.09929
X8.92441 Y22.03442
X9.02680 Y21.97968
X10.56578 Y21.97582
X10.67691 Y22.00955
X10.75057 Y22.09929
X10.76578 Y22.17582
X10.76578 Y24.17582
X10.75057 Y24.25237
X10.67691 Y24.34211
X10.60482 Y24.37198
X10.51579 Y24.37582
X10.51579 Y24.85672
X10.90861 Y24.86223
X11.05372 Y24.92944
X11.36215 Y24.99080
X12.86946 Y24.99080
X13.18043 Y24.92898
X13.26443 Y24.87980
X13.38726 Y24.85583
X16.44380 Y24.85583
X16.55985 Y24.87721
X16.63354 Y24.91663
X16.71573 Y25.00122
X16.75317 Y25.08158
X16.77014 Y25.24922
X16.72744 Y25.39263
X16.67743 Y25.46169
X16.62104 Y25.50614
X16.44225 Y25.77371
X16.37372 Y26.11810
X16.37372 Y27.80357
X16.44220 Y28.14792
X16.61903 Y28.41259
X16.88370 Y28.58942
X17.22782 Y28.65790
X18.91382 Y28.65790
X19.25792 Y28.58947
X19.52258 Y28.41264
X19.69942 Y28.14797
X19.76790 Y27.80385
X19.76790 Y27.66847
X19.68974 Y27.57512
X19.58878 Y27.39806
X19.51608 Y27.16364
X19.49586 Y26.96083
X19.52477 Y26.71711
X19.59828 Y26.50492
X19.68974 Y26.34650
X19.76790 Y26.25321
X19.76790 Y26.11785
X19.69947 Y25.77376
X19.52068 Y25.50619
X19.46426 Y25.46172
X19.41423 Y25.39263
X19.37150 Y25.24922
X19.37780 Y25.11587
X19.40745 Y25.03581
X19.45083 Y24.97089
X19.53300 Y24.90089
X19.61016 Y24.86936
X19.69782 Y24.85583
X23.65880 Y24.85583
X23.77485 Y24.87721
X23.85623 Y24.92265
X23.91490 Y24.98191
X23.96095 Y25.05773
X23.98580 Y25.18277
X23.98780 Y31.20387
X24.18773 Y31.00400
X26.83407 Y31.00583
X27.03555 Y31.04596
X27.14589 Y31.11045
X27.24863 Y31.20854
X27.32777 Y31.34951
X27.36079 Y31.53280
X27.36079 Y35.72380
X27.34350 Y35.85032
X27.30390 Y35.96104
X27.23283 Y36.06736
X27.10469 Y36.17374
X26.96031 Y36.23350
X26.83380 Y36.25080
X2.32280 Y36.25080
X2.13951 Y36.21778
X1.99854 Y36.13863
X1.87291 Y35.99469
X1.81320 Y35.85052
X1.79580 Y35.72380
X1.79580 Y31.53280
X1.82163 Y31.36991
X1.89046 Y31.23156
X1.94065 Y31.17072
X2.05919 Y31.07649
X2.16996 Y31.02851
X2.32254 Y31.00583
X4.96887 Y31.00405
X4.97082 Y25.18270
X4.98820 Y25.05611
X5.02774 Y24.94564
X5.10938 Y24.82946
X5.23866 Y24.72451
X5.37107 Y24.67323
X5.49780 Y24.65583
X6.32241 Y24.66352
X6.44151 Y24.69410
X6.52667 Y24.74003
X6.81753 Y24.79789
X8.21415 Y24.79789
X8.50203 Y24.74066
X8.68367 Y24.66616
X8.91580 Y24.65763
X8.91580 Y24.54633
X8.78298 Y24.45867
X8.69627 Y24.32890
X8.67351 Y24.25387
X8.66581 Y22.17582
X8.69627 Y22.02276
X8.78298 Y21.89299
X8.91275 Y21.80628
X8.98778 Y21.78352
X10.56578 Y21.77582
X10.71887 Y21.80628
X10.84864 Y21.89299
X10.89837 Y21.95360
X10.93535 Y22.02276
X10.96578 Y22.17582
X10.96578 Y24.17582
X10.95811 Y24.25387
X10.89837 Y24.39807
X10.78803 Y24.50840
X10.71579 Y24.54630
X10.71579 Y24.65760
X10.94803 Y24.66616
X11.12959 Y24.74061
X11.38188 Y24.79080
X12.84975 Y24.79080
X13.10494 Y24.74008
X13.26054 Y24.67323
X13.38726 Y24.65583
X16.44380 Y24.65583
X16.62726 Y24.68892
X16.75269 Y24.75600
X16.88205 Y24.89012
X16.91901 Y24.95931
X16.95937 Y25.07371
X16.96948 Y25.26553
X16.93074 Y25.43451
X16.89373 Y25.50375
X16.76722 Y25.64737
X16.63064 Y25.85173
X16.57372 Y26.13784
X16.57372 Y27.78384
X16.63059 Y28.06989
X16.76323 Y28.26839
X16.96173 Y28.40103
X17.24758 Y28.45790
X18.89409 Y28.45790
X19.17989 Y28.40108
X19.37839 Y28.26844
X19.51103 Y28.06994
X19.56790 Y27.74523
X19.40607 Y27.47939
X19.34580 Y27.30096
X19.32185 Y26.92148
X19.34577 Y26.62069
X19.40607 Y26.44226
X19.56790 Y26.17645
X19.56790 Y26.13759
X19.51108 Y25.85179
X19.37448 Y25.64739
X19.24793 Y25.50375
X19.18822 Y25.35958
X19.17105 Y25.21971
X19.18230 Y25.07363
X19.25964 Y24.89012
X19.34445 Y24.79441
X19.43869 Y24.72451
X19.57110 Y24.67323
X19.69782 Y24.65583
X23.65880 Y24.65583
X23.78552 Y24.67323
X23.91798 Y24.72451
X24.04500 Y24.82441
X24.10873 Y24.91199
X24.16850 Y25.05631
X24.18579 Y25.18270
X24.18773 Y31.00400

G04 P0 ( dwell for no time -- G64 should not smooth over this point )
G00 Z25.000 ( retract )

M5 ( Spindle off. )
M9 ( Coolant off. )
M2 ( Program end. )

