( pcb2gcode 1.3.2 )
( Software-independent Gcode )

( This file uses only one drill bit. Forced by 'onedrill' option )

G94       (Millimeters per minute feed rate.)
G21       (Units == Millimeters.)
G90       (Absolute coordinates.)
S4000     (RPM spindle speed.)

G00 Z25.00000 (Retract)
T1
M5      (Spindle stop.)
(MSG, Change tool bit to drill size 0.03940 inch)
M6      (Tool change.)
M0      (Temporary machine stop.)
M3      (Spindle on clockwise.)

F40.00000
G0 X3.14322 Y10.68702
G1 Z-1.60000
G1 Z0.50000
G0 X3.14322 Y13.22702
G1 Z-1.60000
G1 Z0.50000
G0 X3.14322 Y15.76702
G1 Z-1.60000
G1 Z0.50000
G0 X3.14322 Y18.30702
G1 Z-1.60000
G1 Z0.50000
G0 X3.14322 Y20.84702
G1 Z-1.60000
G1 Z0.50000
G0 X3.14322 Y23.38702
G1 Z-1.60000
G1 Z0.50000
G0 X3.14322 Y25.92702
G1 Z-1.60000
G1 Z0.50000
G0 X3.14322 Y28.46702
G1 Z-1.60000
G1 Z0.50000
G0 X18.07080 Y26.96080
G1 Z-1.60000
G1 Z0.50000
G0 X20.57016 Y26.96080
G1 Z-1.60000
G1 Z0.50000
G0 X26.00322 Y25.92702
G1 Z-1.60000
G1 Z0.50000
G0 X26.00322 Y23.38702
G1 Z-1.60000
G1 Z0.50000
G0 X26.00322 Y20.84702
G1 Z-1.60000
G1 Z0.50000
G0 X26.00322 Y18.30702
G1 Z-1.60000
G1 Z0.50000
G0 X26.00322 Y15.76702
G1 Z-1.60000
G1 Z0.50000
G0 X26.00322 Y13.22702
G1 Z-1.60000
G1 Z0.50000
G0 X26.00322 Y10.68702
G1 Z-1.60000
G1 Z0.50000
G0 X19.97580 Y11.72080
G1 Z-1.60000
G1 Z0.50000
G0 X17.47644 Y11.72080
G1 Z-1.60000
G1 Z0.50000
G0 X11.08580 Y11.72080
G1 Z-1.60000
G1 Z0.50000
G0 X8.58644 Y11.72080
G1 Z-1.60000
G1 Z0.50000
G0 X26.00322 Y28.46702
G1 Z-1.60000
G1 Z0.50000

G00 Z25.000 ( All done -- retract )

M5      (Spindle off.)
M9      (Coolant off.)
M2      (Program end.)

