( pcb2gcode 1.3.2 )
( Software-independent Gcode )

G94 ( Millimeters per minute feed rate. )
G21 ( Units == Millimeters. )

G90 ( Absolute coordinates. )
S7000 ( RPM spindle speed. )
F50.00000 ( Feedrate. )

F50.00000 ( Feedrate. )
M3 ( Spindle on clockwise. )
G04 P0 ( dwell for no time -- G64 should not smooth over this point )
G00 Z0.50000 ( retract )

G00 X26.49079 Y7.11080 ( rapid move to begin. )
G01 Z-0.25000 F25.00000 ( plunge. )
G04 P0 ( dwell for no time -- G64 should not smooth over this point )
F50.00000
X26.49079 Y7.11080
X28.22333 Y7.11080
X28.38205 Y7.12673
X28.53801 Y7.17392
X28.67588 Y7.24811
X28.79666 Y7.34776
X28.89572 Y7.46902
X28.96925 Y7.60722
X29.01446 Y7.75710
X29.03079 Y7.91812
X29.03079 Y20.89833
X29.03079 Y23.49833
X29.03079 Y36.47854
X29.01515 Y36.63607
X28.96811 Y36.79218
X28.89389 Y36.93038
X28.79414 Y37.05143
X28.67268 Y37.15070
X28.53417 Y37.22436
X28.38396 Y37.26959
X28.22351 Y37.28580
X15.87830 Y37.28580
X13.27830 Y37.28580
X0.93309 Y37.28580
X0.77494 Y37.27003
X0.61922 Y37.22298
X0.48132 Y37.14892
X0.36049 Y37.04940
X0.26133 Y36.92824
X0.18770 Y36.79012
X0.14236 Y36.64026
X0.12580 Y36.47831
X0.12580 Y20.00506
X0.12580 Y17.40506
X0.12580 Y0.93182
X0.14795 Y0.74498
X0.19773 Y0.59819
X0.27218 Y0.46758
X0.36974 Y0.35321
X0.48699 Y0.25910
X0.61978 Y0.18859
X0.77032 Y0.14272
X0.93387 Y0.12585
X12.01189 Y0.12649
X14.61189 Y0.12664
X25.68991 Y0.12728
X25.84635 Y0.14272
X25.99671 Y0.18844
X26.13524 Y0.26271
X26.25658 Y0.36261
X26.35605 Y0.48430
X26.42978 Y0.62308
X26.47566 Y0.77452
X26.49079 Y0.92953
X26.49079 Y7.11080
G01 Z-0.50000 F25.00000 ( plunge. )
G04 P0 ( dwell for no time -- G64 should not smooth over this point )
F50.00000
X26.49079 Y7.11080
X28.22333 Y7.11080
X28.38205 Y7.12673
X28.53801 Y7.17392
X28.67588 Y7.24811
X28.79666 Y7.34776
X28.89572 Y7.46902
X28.96925 Y7.60722
X29.01446 Y7.75710
X29.03079 Y7.91812
X29.03079 Y20.89833
X29.03079 Y23.49833
X29.03079 Y36.47854
X29.01515 Y36.63607
X28.96811 Y36.79218
X28.89389 Y36.93038
X28.79414 Y37.05143
X28.67268 Y37.15070
X28.53417 Y37.22436
X28.38396 Y37.26959
X28.22351 Y37.28580
X15.87830 Y37.28580
X13.27830 Y37.28580
X0.93309 Y37.28580
X0.77494 Y37.27003
X0.61922 Y37.22298
X0.48132 Y37.14892
X0.36049 Y37.04940
X0.26133 Y36.92824
X0.18770 Y36.79012
X0.14236 Y36.64026
X0.12580 Y36.47831
X0.12580 Y20.00506
X0.12580 Y17.40506
X0.12580 Y0.93182
X0.14795 Y0.74498
X0.19773 Y0.59819
X0.27218 Y0.46758
X0.36974 Y0.35321
X0.48699 Y0.25910
X0.61978 Y0.18859
X0.77032 Y0.14272
X0.93387 Y0.12585
X12.01189 Y0.12649
X14.61189 Y0.12664
X25.68991 Y0.12728
X25.84635 Y0.14272
X25.99671 Y0.18844
X26.13524 Y0.26271
X26.25658 Y0.36261
X26.35605 Y0.48430
X26.42978 Y0.62308
X26.47566 Y0.77452
X26.49079 Y0.92953
X26.49079 Y7.11080
G01 Z-0.75000 F25.00000 ( plunge. )
G04 P0 ( dwell for no time -- G64 should not smooth over this point )
F50.00000
X26.49079 Y7.11080
X28.22333 Y7.11080
X28.38205 Y7.12673
X28.53801 Y7.17392
X28.67588 Y7.24811
X28.79666 Y7.34776
X28.89572 Y7.46902
X28.96925 Y7.60722
X29.01446 Y7.75710
X29.03079 Y7.91812
X29.03079 Y20.89833
X29.03079 Y23.49833
X29.03079 Y36.47854
X29.01515 Y36.63607
X28.96811 Y36.79218
X28.89389 Y36.93038
X28.79414 Y37.05143
X28.67268 Y37.15070
X28.53417 Y37.22436
X28.38396 Y37.26959
X28.22351 Y37.28580
X15.87830 Y37.28580
X13.27830 Y37.28580
X0.93309 Y37.28580
X0.77494 Y37.27003
X0.61922 Y37.22298
X0.48132 Y37.14892
X0.36049 Y37.04940
X0.26133 Y36.92824
X0.18770 Y36.79012
X0.14236 Y36.64026
X0.12580 Y36.47831
X0.12580 Y20.00506
X0.12580 Y17.40506
X0.12580 Y0.93182
X0.14795 Y0.74498
X0.19773 Y0.59819
X0.27218 Y0.46758
X0.36974 Y0.35321
X0.48699 Y0.25910
X0.61978 Y0.18859
X0.77032 Y0.14272
X0.93387 Y0.12585
X12.01189 Y0.12649
X14.61189 Y0.12664
X25.68991 Y0.12728
X25.84635 Y0.14272
X25.99671 Y0.18844
X26.13524 Y0.26271
X26.25658 Y0.36261
X26.35605 Y0.48430
X26.42978 Y0.62308
X26.47566 Y0.77452
X26.49079 Y0.92953
X26.49079 Y7.11080
G01 Z-1.00000 F25.00000 ( plunge. )
G04 P0 ( dwell for no time -- G64 should not smooth over this point )
F50.00000
X26.49079 Y7.11080
X28.22333 Y7.11080
X28.38205 Y7.12673
X28.53801 Y7.17392
X28.67588 Y7.24811
X28.79666 Y7.34776
X28.89572 Y7.46902
X28.96925 Y7.60722
X29.01446 Y7.75710
X29.03079 Y7.91812
X29.03079 Y20.89833
Z-0.80000
X29.03079 Y23.49833
Z-1.00000 F25.00000
F50.00000X29.03079 Y36.47854
X29.01515 Y36.63607
X28.96811 Y36.79218
X28.89389 Y36.93038
X28.79414 Y37.05143
X28.67268 Y37.15070
X28.53417 Y37.22436
X28.38396 Y37.26959
X28.22351 Y37.28580
X15.87830 Y37.28580
Z-0.80000
X13.27830 Y37.28580
Z-1.00000 F25.00000
F50.00000X0.93309 Y37.28580
X0.77494 Y37.27003
X0.61922 Y37.22298
X0.48132 Y37.14892
X0.36049 Y37.04940
X0.26133 Y36.92824
X0.18770 Y36.79012
X0.14236 Y36.64026
X0.12580 Y36.47831
X0.12580 Y20.00506
Z-0.80000
X0.12580 Y17.40506
Z-1.00000 F25.00000
F50.00000X0.12580 Y0.93182
X0.14795 Y0.74498
X0.19773 Y0.59819
X0.27218 Y0.46758
X0.36974 Y0.35321
X0.48699 Y0.25910
X0.61978 Y0.18859
X0.77032 Y0.14272
X0.93387 Y0.12585
X12.01189 Y0.12649
Z-0.80000
X14.61189 Y0.12664
Z-1.00000 F25.00000
F50.00000X25.68991 Y0.12728
X25.84635 Y0.14272
X25.99671 Y0.18844
X26.13524 Y0.26271
X26.25658 Y0.36261
X26.35605 Y0.48430
X26.42978 Y0.62308
X26.47566 Y0.77452
X26.49079 Y0.92953
X26.49079 Y7.11080
G01 Z-1.25000 F25.00000 ( plunge. )
G04 P0 ( dwell for no time -- G64 should not smooth over this point )
F50.00000
X26.49079 Y7.11080
X28.22333 Y7.11080
X28.38205 Y7.12673
X28.53801 Y7.17392
X28.67588 Y7.24811
X28.79666 Y7.34776
X28.89572 Y7.46902
X28.96925 Y7.60722
X29.01446 Y7.75710
X29.03079 Y7.91812
X29.03079 Y20.89833
Z-0.80000
X29.03079 Y23.49833
Z-1.25000 F25.00000
F50.00000X29.03079 Y36.47854
X29.01515 Y36.63607
X28.96811 Y36.79218
X28.89389 Y36.93038
X28.79414 Y37.05143
X28.67268 Y37.15070
X28.53417 Y37.22436
X28.38396 Y37.26959
X28.22351 Y37.28580
X15.87830 Y37.28580
Z-0.80000
X13.27830 Y37.28580
Z-1.25000 F25.00000
F50.00000X0.93309 Y37.28580
X0.77494 Y37.27003
X0.61922 Y37.22298
X0.48132 Y37.14892
X0.36049 Y37.04940
X0.26133 Y36.92824
X0.18770 Y36.79012
X0.14236 Y36.64026
X0.12580 Y36.47831
X0.12580 Y20.00506
Z-0.80000
X0.12580 Y17.40506
Z-1.25000 F25.00000
F50.00000X0.12580 Y0.93182
X0.14795 Y0.74498
X0.19773 Y0.59819
X0.27218 Y0.46758
X0.36974 Y0.35321
X0.48699 Y0.25910
X0.61978 Y0.18859
X0.77032 Y0.14272
X0.93387 Y0.12585
X12.01189 Y0.12649
Z-0.80000
X14.61189 Y0.12664
Z-1.25000 F25.00000
F50.00000X25.68991 Y0.12728
X25.84635 Y0.14272
X25.99671 Y0.18844
X26.13524 Y0.26271
X26.25658 Y0.36261
X26.35605 Y0.48430
X26.42978 Y0.62308
X26.47566 Y0.77452
X26.49079 Y0.92953
X26.49079 Y7.11080

G04 P0 ( dwell for no time -- G64 should not smooth over this point )
G00 Z25.000 ( retract )

M5 ( Spindle off. )
M9 ( Coolant off. )
M2 ( Program end. )

